remix/Weather/rainy-fill.svg

<svg viewBox="0 0 24 24" fill="currentColor" xmlns="http://www.w3.org/2000/svg"><path d="M15.86 18L12.7071 14.8471C12.3166 14.4566 11.6834 14.4566 11.2929 14.8471L8.18137 17.9586C4.14765 17.5486 1 14.1419 1 10C1 5.58172 4.58172 2 9 2C11.9967 2 14.6086 3.64768 15.9791 6.08651C16.3109 6.02963 16.652 6 17 6C20.3137 6 23 8.68629 23 12C23 15.3137 20.3137 18 17 18H15.86ZM10.2322 18.7322L12 16.9645L13.7678 18.7322C14.7441 19.7085 14.7441 21.2915 13.7678 22.2678C12.7915 23.2441 11.2085 23.2441 10.2322 22.2678C9.25592 21.2915 9.25592 19.7085 10.2322 18.7322Z"/></svg>

<svg viewBox="0 0 24 24" xmlns="http://www.w3.org/2000/svg"><path fill="none" d="M0 0h24v24H0Z"/><path d="M15.86 18l-3.16-3.16v0c-.4-.4-1.03-.4-1.42 0l-3.12 3.11v0c-4.4-.46-7.6-4.39-7.14-8.79 .45-4.4 4.38-7.6 8.78-7.14 2.58.26 4.88 1.77 6.15 4.04v0c3.26-.57 6.36 1.62 6.93 4.89 .56 3.26-1.63 6.36-4.9 6.93 -.34.05-.68.08-1.02.08h-1.14Zm-5.628.73l1.76-1.77 1.76 1.76v0c.97.97.97 2.55-.01 3.53 -.98.97-2.56.97-3.54-.01s-.98-2.56-.001-3.54Z"/></svg>
